icons/derivative/derivative-partial.svg

<svg width="14" height="14" viewBox="0 0 14 14" fill="none"
    xmlns="http://www.w3.org/2000/svg">
    <path d="M3 7H11" stroke="green" stroke-linecap="round"/>
    <path d="M6 1.5C7.38071 1.5 8.5 2.61929 8.5 4V4.5C8.5 5.32843 7.82843 6 7 6C6.17157 6 5.5 5.32843 5.5 4.5C5.5 3.67157 6.17157 3 7 3C7.04079 3 7.08112 3.00266 7.12109 3.00586C6.84631 2.69621 6.44655 2.5 6 2.5C5.72386 2.5 5.5 2.27614 5.5 2C5.5 1.72386 5.72386 1.5 6 1.5ZM7 4C6.72386 4 6.5 4.22386 6.5 4.5C6.5 4.77614 6.72386 5 7 5C7.27614 5 7.5 4.77614 7.5 4.5C7.5 4.22386 7.27614 4 7 4Z" fill="red"/>
    <path d="M4.50012 8C5.73249 8.00007 6.7315 8.99908 6.73157 10.2314V11C6.73157 11.8284 6.05999 12.5 5.23157 12.5C4.40314 12.5 3.73157 11.8284 3.73157 11C3.73157 10.1716 4.40314 9.5 5.23157 9.5C5.32598 9.5 5.41836 9.50871 5.50793 9.52539C5.28522 9.20802 4.91729 9.00004 4.50012 9C4.22398 9 4.00012 8.77614 4.00012 8.5C4.00012 8.22386 4.22398 8 4.50012 8ZM5.23157 10.5C4.95543 10.5 4.73157 10.7239 4.73157 11C4.73157 11.2761 4.95543 11.5 5.23157 11.5C5.50771 11.5 5.73157 11.2761 5.73157 11C5.73157 10.7239 5.50771 10.5 5.23157 10.5Z" fill="red"/>
    <path d="M9.64725 9.41512C9.91511 9.34821 10.1867 9.51152 10.2537 9.77938C10.3205 10.0471 10.158 10.3187 9.89041 10.3858C9.33354 10.5251 9.33354 11.3159 9.89041 11.4552C10.158 11.5223 10.3206 11.7939 10.2537 12.0616C10.1867 12.3295 9.9151 12.4928 9.64725 12.4259C9.24317 12.3248 8.94444 12.1007 8.74881 11.8184C8.5532 12.1007 8.25443 12.3248 7.85038 12.4259C7.58259 12.4927 7.31094 12.3294 7.24393 12.0616C7.1771 11.7938 7.34036 11.5221 7.60819 11.4552C8.12945 11.3243 8.16217 10.6214 7.70584 10.419L7.60819 10.3858L7.51249 10.3516C7.30284 10.2512 7.18547 10.0137 7.24393 9.77938C7.3026 9.54487 7.51829 9.39024 7.75077 9.40047L7.85038 9.41512L7.99295 9.45711C8.3255 9.57105 8.57696 9.7738 8.74881 10.0216C8.94445 9.73958 9.24346 9.51612 9.64725 9.41512Z" fill="red"/>
</svg>

<svg xmlns="http://www.w3.org/2000/svg" width="14" height="14" fill="none" viewBox="0 0 14 14"><path stroke="green" stroke-linecap="round" d="M3 7h8"/><path fill="red" d="M6 1.5A2.5 2.5 0 0 1 8.5 4v.5a1.5 1.5 0 1 1-1.379-1.494A1.5 1.5 0 0 0 6 2.5a.5.5 0 0 1 0-1M7 4a.5.5 0 1 0 0 1 .5.5 0 0 0 0-1M4.5 8c1.232 0 2.231 1 2.232 2.231V11a1.5 1.5 0 1 1-1.224-1.475A1.23 1.23 0 0 0 4.5 9a.5.5 0 0 1 0-1m.732 2.5a.5.5 0 1 0 0 1 .5.5 0 0 0 0-1m4.415-1.085a.5.5 0 0 1 .243.97c-.556.14-.556.93 0 1.07a.5.5 0 0 1-.243.97 1.52 1.52 0 0 1-.898-.607 1.52 1.52 0 0 1-.899.608.5.5 0 0 1-.242-.97c.521-.132.554-.835.098-1.037l-.098-.033-.096-.034a.5.5 0 0 1 .239-.952l.1.015.142.042c.332.114.584.317.756.565.195-.282.494-.506.898-.607"/></svg>
